icons/svg/16x16/mail/outline.svg

<svg xmlns="http://www.w3.org/2000/svg" width="16" height="16" viewBox="0 0 16 16">
  <path fill-rule="evenodd" d="M8,12.9999 C5.985,12.9999 4.247,12.7219 3.143,12.4869 C3.031,12.4639 2.93,12.4199 2.836,12.3649 L5.758,9.4429 L8,11.0449 L10.242,9.4429 L13.136,12.3379 C13.027,12.4139 12.909,12.4769 12.773,12.5049 C11.687,12.7299 9.977,12.9999 8,12.9999 L8,12.9999 Z M2.195,10.6039 C2.08,9.7879 2,8.9329 2,7.9999 C2,7.5819 2.034,7.1959 2.058,6.7999 L4.356,8.4419 L2.195,10.6039 Z M3.143,3.5129 C4.247,3.2779 5.986,2.9999 8,2.9999 C9.977,2.9999 11.687,3.2699 12.773,3.4949 C13.15,3.5729 13.447,3.8629 13.531,4.2349 C13.576,4.4359 13.624,4.6669 13.669,4.9059 L8,8.9549 L2.279,4.8689 C2.315,4.6659 2.334,4.4419 2.378,4.2479 C2.461,3.8769 2.755,3.5949 3.143,3.5129 L3.143,3.5129 Z M14,7.9999 C14,8.8909 13.893,9.7779 13.762,10.5609 L11.644,8.4419 L13.94,6.8019 C13.975,7.1959 14,7.5979 14,7.9999 L14,7.9999 Z M15.482,3.7949 C15.225,2.6539 14.325,1.7739 13.181,1.5369 C11.921,1.2749 10.098,0.9999 8,0.9999 C5.851,0.9999 3.99,1.2889 2.728,1.5559 C1.585,1.7979 0.684,2.6689 0.427,3.8089 C0.204,4.7989 0,6.1949 0,7.9999 C0,9.8049 0.204,11.2009 0.427,12.1919 C0.684,13.3309 1.585,14.2019 2.728,14.4439 C3.99,14.7109 5.851,14.9999 8,14.9999 C10.098,14.9999 11.921,14.7249 13.181,14.4629 C14.325,14.2259 15.225,13.3459 15.482,12.2059 C15.738,11.0719 16,9.5359 16,7.9999 C16,6.4639 15.738,4.9279 15.482,3.7949 L15.482,3.7949 Z"/>
</svg>

<svg width="16" height="16" fill="none" xmlns="http://www.w3.org/2000/svg">
  <path fill-rule="evenodd" clip-rule="evenodd" d="M8 13c-2.015 0-3.753-.278-4.857-.513a1.006 1.006 0 01-.307-.122l2.922-2.922L8 11.045l2.242-1.602 2.894 2.895a.98.98 0 01-.363.167A23.93 23.93 0 018 13zm-5.805-2.396A18.423 18.423 0 012 8c0-.418.034-.804.058-1.2l2.298 1.642-2.161 2.162zm.948-7.091A23.77 23.77 0 018 3c1.977 0 3.687.27 4.773.495a.979.979 0 01.758.74c.045.2.093.432.138.67L8 8.956 2.279 4.869c.036-.203.055-.427.099-.621a.972.972 0 01.765-.735zM14 8c0 .89-.107 1.778-.238 2.56l-2.118-2.118 2.296-1.64c.035.394.06.796.06 1.198zm1.482-4.205a2.973 2.973 0 00-2.301-2.258A25.778 25.778 0 008 1c-2.149 0-4.01.289-5.272.556A2.977 2.977 0 00.427 3.809C.204 4.799 0 6.195 0 7.999c0 1.806.204 3.202.427 4.193a2.977 2.977 0 002.301 2.252C3.99 14.71 5.851 15 8 15c2.098 0 3.921-.275 5.181-.537a2.973 2.973 0 002.301-2.257C15.738 11.072 16 9.536 16 8c0-1.536-.262-3.072-.518-4.205z" fill="#000"/>
</svg>
